src/16/panel/si-syncthing-10.svg

<svg xmlns="http://www.w3.org/2000/svg" width="16" height="16" version="1.1">
 <defs>
  <style id="current-color-scheme" type="text/css">
   .ColorScheme-Text { color:#dfdfdf; } .ColorScheme-Highlight { color:#5294e2; }
  </style>
 </defs>
 <path style="fill:currentColor" class="ColorScheme-Text" d="M 1.0000001,8 A 7,7 0 0 0 8,15 a 7,7 0 0 0 7,-6.9999999 7,7 0 0 0 -6.9999998,-7 A 7,7 0 0 0 1.0000001,8 Z m 2.0000001,10e-8 A 5,5 0 0 1 7.0566404,3.0917972 1.5,1.5 0 0 1 8.5000001,2.0000008 1.5,1.5 0 0 1 9.9960933,3.4218751 5,5 0 0 1 12.58203,6.0039065 1.5,1.5 0 0 1 14,7.5000012 1.5,1.5 0 0 1 12.906249,8.9433593 5,5 0 0 1 8.0000001,13 a 5,5 0 0 1 -0.085942,-0.002 1.5,1.5 0 0 1 -1.4140619,1.001952 1.5,1.5 0 0 1 -1.5000003,-1.5 1.5,1.5 0 0 1 0.072269,-0.455079 A 5,5 0 0 1 2.999998,8.0000034 Z m 0.9999997,-2e-7 A 4,4 0 0 0 5.6738269,11.248048 1.5,1.5 0 0 1 6.5000004,11 a 1.5,1.5 0 0 1 0.060541,0.0039 L 7.5117189,8.6269533 a 1.5,1.5 0 0 1 -0.5117188,-1.1269531 1.5,1.5 0 0 1 1,-1.4121094 l 1e-7,-1.1757815 A 1.5,1.5 0 0 1 7.1289062,4.1015632 4,4 0 0 0 3.9999999,7.9999999 Z M 7.4882812,11.375001 A 1.5,1.5 0 0 1 7.9101581,11.996093 4,4 0 0 0 7.9999999,12 4,4 0 0 0 11.900391,8.873047 1.5,1.5 0 0 1 11.087891,8 l -1.1757815,3e-7 A 1.5,1.5 0 0 1 8.5000001,9.0000002 1.5,1.5 0 0 1 8.4394521,8.9960904 L 7.4882812,11.375001 Z M 9.0000001,6.0878911 a 1.5,1.5 0 0 1 0.9121091,0.9121092 l 1.1757818,-4e-7 A 1.5,1.5 0 0 1 11.613281,6.2949224 4,4 0 0 0 9.7070313,4.3886724 1.5,1.5 0 0 1 8.9999981,4.9121058 L 9,6.087891 Z"/>
</svg>

<svg xmlns="http://www.w3.org/2000/svg" width="16" height="16"><defs><style id="current-color-scheme" type="text/css"></style></defs><path d="M1 8a7 7 0 0 0 7 7 7 7 0 0 0 7-7 7 7 0 0 0-7-7 7 7 0 0 0-7 7zm2 0a5 5 0 0 1 4.057-4.908A1.5 1.5 0 0 1 8.5 2a1.5 1.5 0 0 1 1.496 1.422 5 5 0 0 1 2.586 2.582A1.5 1.5 0 0 1 14 7.5a1.5 1.5 0 0 1-1.094 1.443A5 5 0 0 1 8 13a5 5 0 0 1-.086-.002A1.5 1.5 0 0 1 6.5 14 1.5 1.5 0 0 1 5 12.5a1.5 1.5 0 0 1 .072-.455A5 5 0 0 1 3 8zm1 0a4 4 0 0 0 1.674 3.248A1.5 1.5 0 0 1 6.5 11a1.5 1.5 0 0 1 .06.004l.952-2.377A1.5 1.5 0 0 1 7 7.5a1.5 1.5 0 0 1 1-1.412V4.912a1.5 1.5 0 0 1-.871-.81A4 4 0 0 0 4 8zm3.488 3.375a1.5 1.5 0 0 1 .422.621A4 4 0 0 0 8 12a4 4 0 0 0 3.9-3.127A1.5 1.5 0 0 1 11.088 8H9.912A1.5 1.5 0 0 1 8.5 9a1.5 1.5 0 0 1-.06-.004l-.952 2.379zM9 6.088A1.5 1.5 0 0 1 9.912 7h1.176a1.5 1.5 0 0 1 .525-.705 4 4 0 0 0-1.906-1.906A1.5 1.5 0 0 1 9 4.912v1.176z" fill="currentColor" color="#dfdfdf"/></svg>
